X:146
T: Komm heraus, du trauerige Braut (2-37), S. 96f
N: K1121
O: Luxemburg
S: KINTZELE, Guillaume: An der Ucht, Bd. 2, Luxemburg 1927]
N: in der Quelle mit einer 2. Stimme versehen
R: Spottlied]
M: 2/4
L: 1/16
K: F
F2A2 | c4c2c2 | c4d4 | c3BB2B2 | B4
c2B2 | A4A4 | G4G4 | F4
F2A2 | c4c4 | c4d2c2 | c3BB2B2 | B4
c2B2 | A4A4 | c4A4 | A3GG2G2 | G4
c4 | A2F2F2F2 | d6d2 | d2c2A2c2 | c4B4 | A4
c4 | A2F2F2F2 | d6d2 | d2c2A2c2 | c4B4 | A4

